src/12/document-search-fill.svg

<svg xmlns="http://www.w3.org/2000/svg" width="12" height="12" focusable="false" viewBox="0 0 12 12">
  <path fill="currentColor" d="M6.50282344,0.000999243952 C6.78296718,0.000999243952 7.00308012,0.220999244 7.00308012,0.500999244 L7.00308012,2.50099924 C7.00308012,3.33099924 7.67342407,4.00099924 8.50385015,4.00099924 L10.5048769,4.00099924 C10.781161,4.00099924 11.0051335,4.22485687 11.0051335,4.50099924 C11.0051335,4.77714162 10.781161,5.00099924 10.5048769,5.00099924 L3.50128338,5.00099924 C3.22113964,5.00099924 3.00102671,5.22099924 3.00102671,5.50099924 C3.00102671,5.78099924 3.22113964,6.00099924 3.50128338,6.00099924 L4.52580906,6.00099924 C4.88399284,6.00099924 5.08809756,6.46099924 4.91300773,6.77299924 C4.83911951,6.91048508 4.69692446,6.99759217 4.54081676,7.00099924 L3.50128338,7.00099924 C3.22113964,7.00099924 3.00102671,7.22099924 3.00102671,7.50099924 C3.00102671,7.78099924 3.22113964,8.00099924 3.50128338,8.00099924 L4.56482908,8.00099924 C4.81195588,8.00099924 5.00205341,8.22099924 5.00205341,8.46799924 C5.00205341,8.74899924 4.78894407,9.00099924 4.50779982,9.00099924 L3.50128338,9.00099924 C3.22113964,9.00099924 3.00102671,9.22099924 3.00102671,9.50099924 C3.00102671,9.78099924 3.22113964,10.0009992 3.50128338,10.0009992 L5.00205341,10.0009992 C5.55462168,10.0009992 6.00256677,10.4487145 6.00256677,11.0009992 C6.00256677,11.553284 5.55462168,12.0009992 5.00205341,12.0009992 L2.00051335,12.0009992 C1.45023101,12.0009992 1,11.5509992 1,11.0009992 L1,1.00099924 C1,0.450999244 1.45023101,0.000999243952 2.00051335,0.000999243952 L6.50282344,0.000999243952 Z M10.086269,6.56497024 C11.0809048,7.37669577 11.2989974,8.80933315 10.590921,9.87999924 L11.8595719,11.1479992 C12.0491553,11.3441887 12.046444,11.6560416 11.8534781,11.8489085 C11.6605122,12.0417754 11.3484992,12.0444853 11.152209,11.8549992 L9.88355806,10.5869992 C8.81234234,11.2947123 7.37896951,11.0767316 6.56682727,10.0826062 C5.75468503,9.0884808 5.82762874,7.6411902 6.73561423,6.73367059 C7.64359972,5.82615098 9.09163329,5.7532447 10.086269,6.56497024 Z M8.50385015,7.00099924 C7.67499775,7.00099924 7.00308012,7.67257212 7.00308012,8.50099924 C7.00308012,9.32942637 7.67499775,10.0009992 8.50385015,10.0009992 C9.33270255,10.0009992 10.0046202,9.32942637 10.0046202,8.50099924 C10.0046202,7.67257212 9.33270255,7.00099924 8.50385015,7.00099924 Z M8.85402982,0.150999244 L10.8550565,2.15099924 C11.1752208,2.46099924 10.9551079,3.00099924 10.5048769,3.00099924 L9.00410683,3.00099924 C8.45382448,3.00099924 8.00359347,2.55099924 8.00359347,2.00099924 L8.00359347,0.500999244 C8.00359347,0.060999244 8.54387068,-0.169000756 8.85402982,0.150999244 Z"/>
</svg>

<svg xmlns="http://www.w3.org/2000/svg" width="12" height="12" focusable="false" viewBox="0 0 12 12">
  <path fill="currentColor" d="M9.879 10.586a2.5 2.5 0 1 1 .707-.707l1.268 1.268a.5.5 0 0 1-.707.707l-1.268-1.268ZM10 8.5a1.5 1.5 0 1 1-3 0 1.5 1.5 0 0 1 3 0Z"/>
  <path fill="currentColor" d="M8.5 4h2a.5.5 0 0 1 0 1h-7c-.28 0-.5.22-.5.5s.22.5.5.5h1.024c.358 0 .562.46.387.772A.433.433 0 0 1 4.539 7H3.5c-.28 0-.5.22-.5.5s.22.5.5.5h1.063C4.81 8 5 8.22 5 8.467 5 8.748 4.787 9 4.506 9H3.5c-.28 0-.5.22-.5.5s.22.5.5.5H5a1 1 0 1 1 0 2H2c-.55 0-1-.45-1-1V1c0-.55.45-1 1-1h4.5c.28 0 .5.22.5.5v2C7 3.33 7.67 4 8.5 4Z"/>
  <path fill="currentColor" d="M8 2V.5c0-.44.54-.67.85-.35l2 2c.32.31.1.85-.35.85H9c-.55 0-1-.45-1-1Z"/>
</svg>
